X: 019
T: Exeter change
B: 204 Favourite Country Dances
N: Published by Straight & Skillern, London ca.1775
F: http://imslp.org/wiki/204_Favourite_Country_Dances_(Various) p.10 #19
Z: 2014 John Chambers <jc:trillian.mit.edu>
M: C|
L: 1/8
K: G
%  - - - - - - - - - - - - - - - - - - - - - - - - -
d2 |\
BABc B2A2 | GFGA G2d2 | edef g2fe | dcBc d2d2 |\
BABc B2A2 | G6     g2 | fagf edef | d3e  d2 :|
|: d2 |\
AGAB c2BA | BABc B2d2 | efga g2fe | dcde d2d2 |\
BABc B2A2 | GFGA G2c2 | Bdfg AGAB | G3A  G2 :|
%  - - - - - - - - - - - - - - - - - - - - - - - - -
%%begintext align
%% Hands across & back again cross over 1
%% Cu. right & left at top
%%endtext

%%sep 1 1 500
%%sep 1 1 500
